X: 3
T: Johnny Boyle's
Z: Erik-Fiddler
S: https://thesession.org/tunes/51#setting52137
R: jig
M: 6/8
L: 1/8
K: Gmaj
|:E|DEG BAG|B/c/dB {d}BAG|cde dBG|~c(3c/B/c/c AGE|
DEG BAG|BdB {d}BAB|def gdB|1{d}cAF G2:|2{d}cAF G2||
|:a|b3 g(3g/f/g/g|dgb bag|a(3a/a/a/a ~f(3f/e/f/f|dfa aga|
b(3b/b/b/b gag|dg/a/b bag|[A3a3] ~f(3f/e/f/f|dfa g2:|
f|[e3B3] edB|edB gdB|edc BAG|~c(3c/B/c/c AGE|
DEG BAG|BdB {d}BAB|def gdB|{d}cAF G2||

%-------------------- TUNE SEPARATOR --------------------%

